X:1
T:Title
T:Title 
T:Composer
C:Composer
L:1/8
M:4/4
K:C
V:1 treble nm="Piano" snm="Pno."
V:1
 z2 A2 D2 A2 | D2 _B2 A2 F2 | A,2 F2 G,2 F2 | G2 [FA]2 z2 A2 | D2 A2 D2 c2 | _B2 A2 G2 C2 | %6
 _B,2 E2 G2 _B2 | A2 G2 F2 G2 | _B,2 G2 B,2 A2 | G2 F2 G2 A2 | z8 | z8 | z8 | z8 | z8 | z8 | z8 | %17
 z8 | z8 | z8 | z8 | z8 | z8 | z8 | z8 | z8 | z8 | z8 | z8 | z8 | z8 | z8 |] %32

